X:1
T:Scheherazade
T:Suite Symphonique Part I
T:Nikolai Rimsky-Korsakov, Op. 35
T:Réduction par Paul Gilson
%%score { ( 1 3 5 ) | ( 2 4 ) }
L:1/8
Q:1/4=96
M:2/2
K:G
V:1 bass nm="Piano"
V:3 bass 
V:5 bass 
V:2 bass 
V:4 bass 
V:1
"^Largo Maestoso" [E,E]4 [B,,B,]4 | [D,D]4 (3[D,D]2 [C,C]2 [B,,B,]2 | %2
 [C,C]/D/C/D/ C/4D/4C/4D/4C/4D/4C/4D/4 C/4D/4C/4D/4C/4D/4C/4D/4!ff! [C,C]>G,!f! | .^A,4 .F,4 | z8 | %5
 .=A,4 .=F,4 | z8 |[K:treble][Q:1/4=80]!pp! !fermata![GB]8 | !fermata![df]8 | !fermata![Geg]8 | %10
 !fermata![^A^cf]8 |!p![Q:1/4=96] [eac'e']8- | [eac'e']8 || %13
[M:4/4][Q:1/4=54]"^Lento" e'4- e'(3d'/e'/d'/ (3c'/d'/c'/(3b/c'/b/ (3a/c'/e'/ (3g'/f'/e'/ | %14
!mf! e'2- e'(3d'/e'/d'/ (3c'/d'/c'/(3b/c'/b/ (3a/c'/e'/ (3g'/f'/e'/ e'2- | %15
!p! e'(3A/c/e/ (3g/f/e/ e(3A,/C/E/(3G/F/E/ E4 | %16
"^Cadensa." (3A,CE (3GFE (3Ace (3gfe (3a2 c'2 e'2[Q:1/4=48]"^ritard" (3g'2 f'3 e' || %17
[K:E][M:6/4]!mf![Q:1/4=168]"^Allegro non troppo" [egbe']12- | [egbe']6- [egbe']2 z4 | E6- E4 B,2 | %20
 =D6 D2 .C2 .^B,2 |!mf! C/!p!=D/C/D/ C/D/C/D/ C/D/C/D/ C/D/C/D/!mp! C/D/C/D/!mf! ^B,C | %22
 .F2 .B,2 z8 |!mf! !arpeggio!.[FBf]2 .B2 z8 | [FB]6- [FB]4!mf! F2 | A6- A2!mf! G2 ^^F2 | %26
 G/!p!A/G/A/ G/A/G/A/ G/A/G/A/ G/A/G/A/ G/A/G/A/!p!!mf! ^^FG | .c2 .G2 z8 | %28
!mf! !arpeggio!.[B^ec']2 .g2 z8 |!p! [Gc]6- [Gc]4 G2 | B6- B2 _B2 A2 | %31
 _B/!pp!=B/_B/=B/ _B/=B/_B/=B/ _B/=B/_B/=B/ _B/=B/_B/=B/ _B/=B/_B/=B/!p! =A_B | [_B_e]6- [Be]4 B2 | %33
 _d6- d2 =c2 =B2 | =c/!pp!_d/c/d/ c/d/c/d/ c/d/c/d/ c/d/c/d/ c/d/c/d/!mp! =Bc | =f4 =c2 _e4 =d^c | %36
 =d/!p!_e/d/e/ d/e/d/e/!mp!!mp! ^cd =g4 d2 | =f4!mf! e^d e/!mp!f/e/f/ e/f/e/f/!mf! ^de | %38
!f! [ea]6- [ea]4 e2 | =g6- g2 f2 ^e2 | %40
!f! f/!mp!=g/f/g/ f/g/f/g/ f/g/f/g/ f/g/f/g/ f/g/f/g/!f! ^ef | .[ABeb]2 .[ABef]2 z8 | %42
 .[ABdb]2 .[ABdf]2 z8 | [eg-b-e'-]12 | [egbe']6- [egbe']2 z2 z2 |"^A" e6- e4 B2 | =d6- d2 c2 ^B2 | %47
!<(! c/!mp!=d/c/d/ c/d/c/d/ c/!mf!d/c/d/ c/d/c/d/ c/d/c/!<)!d/!f! ^Bc | .[FBf]2 .[B,FB]2 z8 | %49
!ff! .[fbf']2 .[Bfb]2 z8 |!f! =g6- g4 =d2 | =f6- f2 e2 ^d2 | %52
!<(! e/!mp!=f/e/f/ e/f/e/f/ e/!mf!f/e/f/ e/f/e/f/ e/f/e/f/!<)!!f! ^de | .[Aea]2 .[EAe]2 z8 | %54
!ff!!8va(! .[ae'a']2 .[eae']2!8va)! z8 | [ea]6- [ea]4 e2 | =g6- g2 f2 ^e2 | %57
 f/!pp!=g/f/g/ f/g/f/g/ f/g/f/g/ f/g/f/g/ f/g/f/g/!mp! ^ef | [fb]6- [fb]4 f2 | a6- a2 g2 ^^f2 | %60
 g/!p!a/g/a/ g/a/g/a/ g/a/g/a/ g/a/g/a/ g/a/g/a/!mf! ^^fg | c'4 g2 b4 _ba | %62
 _b/!mp!_c'/b/c'/ b/c'/b/c'/ =ab!mf! _e'4 b2 | %63
 _d'4 =c'=b c'/!mp!_d'/c'/d'/ c'/!mf!_d'/c'/d'/!f! =bc' | [=f=c'=f']6- [fc'f']4 [=cc']2 | %65
 [_e-_c'_e'-]6 [ee']2 [=d=d']2 [^c^c']2 | %66
!f! =d'/!mp!_e'/d'/e'/ d'/e'/d'/e'/ d'/e'/d'/e'/ d'/e'/!mf!d'/e'/ d'/e'/d'/e'/!f! ^c'd' | %67
!ff! .[=g=c'=d'=g']2 .[=dgc'd']2 z8 | .[=gb=d'=g']2!f!!>(! .[=dgbd']2 z8!>)! || %69
[K:C]"^B" =C2"^Tranquillo" [CEG]2 [CEA]2 [CEA]2 [CEG]2 [CEA]2 | %70
 [FAc]2 [FAc]2 [FAd]2 [FAd]2 [FAc]2 [FAd]2 | [Gce]2 [ceg]2 [cea]2 [cea]2 [ceg]2 [cea]2 | %72
 [fac']2 [fac']2 [fad']2 [fad']2 [fac']2 [fad']2 |!p! [egc'e']12- | [egc'e']12 | c6- c4 G2 | %76
 z6 z2 _b2 a2 | d'2 c'2 g2 a2{/c'} _b2 a2 | d'2 c'2 g2 a2{/c'} _b2 a2 | [e-g-_b-d']12 | %80
 [egbc']6 z2 z4 ||[K:G] A6- A4 E2 | z6 z2 g2 f2 | b2 a2 e2 f2{/a} g2 f2 | b2 a2 e2 f2{/a} g2 f2 | %85
 [e-g-b]12 | [ega]6 z2 z4 | F6- F4 ^C2 | z6 z2 e2 ^d2 | ^g2 f2 ^c2 ^d2{/f} e2 d2 | %90
 ^g2 f2 ^c2 ^d2{/f} e2 d2 | [^A-e-^g]12 | [Aef]6 z2 z4 | %93
"^C"!p! .f2 (3efe (3ded (3^cdc (3Bdf (3a^gf | .f2 (3efe (3ded (3^cdc (3Bdf (3a^gf | %95
 .f2 (3Bdf (3a^gf .f2 (3Bdf (3agf | .f2 (3Bdf (3a^gf g3 a b2 | .e2 (3ded (3cdc (3BcB (3Ace (3gfe | %98
 .e2 (3ded (3cdc (3BcB (3Ace (3gfe | .e2 (3Ace (3gfe .e2 (3Ace (3gfe | .e2 (3Ace (3gfe f3 g a2 | %101
!f!"^D" [Gg]2 (3gbd' (3[gg']f'^e' [ff']2 (3gbd' (3[ff']=f'=e' | %102
 [=f=f']2 (3gbd' (3[ff']e'^d' [ee']2 (3e^gb (3[d=d']^c'b | %103
 [^ce^c']2!8va(! (3ac'e' (3[aa']^g'^^f' [^gg']2 (3ac'e' (3[gg']=g'^f' | %104
 [g^c'g']2 (3ac'e' (3[gg']f'^e' [ff']2 (3f^ac' (3[e=e']^d'c' |: %105
 [^df^d']2 (3bd'f' (3[bb']^a'^^g' [^aa']2 (3bd'f' (3[aa']=a'^g' | %106
 [=af'=a']!8va)! z!mp! A/B/A/B/ A/B/A/B/ A/B/A/B/ A/!mf!B/A/B/!f! =GF | %107
 [D=G]2!8va(! (3gbd' (3[gg']f'^e' [ff']2 (3gbd' (3[ff']=f'^e' | %108
{/^e} ^e'/f'/e'/f'/ e'/f'/e'/f'/ e'/f'/e'/f'/ e'/f'/e'/f'/ e'/f'/e'/f'/ ^c' z!8va)! :| %109
!mp! [^dfb]/^c'/[dfb]/c'/ [dfb]/c'/[dfb]/c'/ [dfb]/c'/[dfb]/c'/ [dfb]/c'/[dfb]/c'/ [dfb]/c'/[dfb]/c'/ [dab]/c'/[dab]/c'/ | %110
 [=d=gb]/^c'/[dgb]/c'/ [=d=gb]/c'/[dgb]/c'/ [=d=gb]/c'/[dgb]/c'/ [^c^gb]/c'/[cgb]/c'/ [cgb]/c'/[cgb]/c'/ [cgb]/c'/[cgb]/c'/ | %111
 [^dfb]/^c'/[dfb]/c'/ [dfb]/c'/[dfb]/c'/ [dfb]/c'/[dfb]/c'/ [dfb]/c'/[dfb]/c'/ [dfb]/c'/[dfb]/c'/ [dab]/c'/[dab]/c'/ | %112
 [=d=gb]/^c'/[dgb]/c'/ [=d=gb]/c'/[dgb]/c'/ [=d=gb]/c'/[dgb]/c'/ [^c^gb]/c'/[cgb]/c'/ [cgb]/c'/[cgb]/c'/ [cgb]/c'/[cgb]/c'/ | %113
!f! b6- b4 f2 | a6- a2 ^g2 ^^f2 | %115
{/^G} ^g/!mp!a/g/a/ g/a/g/a/ g/a/g/a/ g/a/g/!mf!a/ g/a/g/a/!f! ^^fg | %116
 .[^c^e^c']2 .[^c^e^g]2 z2 .[=c=e=c']2 .[ce=g]2 B,2 | %117
 .[ABeb]2 .[Bef]2 z2 .[b^d'f'b']2 .[bd'f']2 B,2 || %118
[K:E]"^E"!ff! [egbe']6- [egbe']2- [egbe']B[Gg][ee'] | [egbe']12 | [ee']6- [ee']4 [Bb]2 | %121
 [=d=d']6- [dd']2 [cc']2 [^B^b]2 | %122
{/c} c'/d'/c'/d'/ c'/d'/c'/d'/ c'/d'/c'/d'/ c'/d'/c'/d'/ c'/d'/c'/d'/ ^bc' | %123
 [fbf']2!8va(! (3b'd''f'' (3[bb']^a'^^g' [^aa']2 (3bd'f' (3[aa']=a'^g' | %124
 [f'a']2 z2 z2 z2!8va)! z2 z2 | b6- b4 [Ff]2 | [AB^ea]6- [ABea]2 [Gg]2 [^^F^^f]2 | %127
{/B} g/a/g/a/ g/a/g/a/ g/a/g/a/ g/a/g/a/ g/a/g/a/ ^^fg | %128
 [B^ec']2 (3c'^e'g'!8va(! (3[c'c'']^b'^^a' [^bb']2 (3c'^e'g' (3[b^b']=b'^a' | %129
 =b'2 z2 z2 z2!8va)! z4 | z2 (3c^eg (3[cc']^b^^a [^Bb]2 (3ceg (3[Bb]=b^a | %131
 [=B=b]6- [Bb]2 [_B_b]2 [=A=a]2 | %132
 _b/=b/_b/=b/ _b/=b/_b/=b/ _b/=b/_b/=b/ _b/=b/_b/=b/ _b/=b/_b/=b/ =a_b | %133
 [_e_e']2 (3e=g_b (3[ee']=d'^c' [=dd']2 (3egb (3[dd']_d'=c' | [_d_d']6- [dd']2 [=c=c']2 [=B=b]2 | %135
 =c'/_d'/c'/d'/ c'/d'/c'/d'/ c'/d'/c'/d'/ c'4 bc' | %136
 [=f=f']2 (3fa=c' (3[ff']_e'=d' [_ee']2 (3e_gc' (3[ee']d'^c' | %137
 =d'/_e'/d'/e'/ d'/e'/d'/e'/ ^c'd' [=g=g']2 (3gbd' (3[gg']=f'=e' | %138
 [=f=f']2 f2 [ff']2 e'/f'/e'/f'/ e'/f'/e'/f'/ ^d'e' | %139
 [ae'a']2 (3ac'e' (3[aa']^g'^^f' [gg']2 (3ac'e' (3[gg']=g'^f' | [=g=g']6- [gg']2 [ff']2 [^e^e']2 | %141
 f'/=g'/f'/g'/ f'/g'/f'/g'/ f'/g'/f'/g'/ f'/g'/f'/g'/ f'/g'/f'/g'/ ^e'f' | %142
 .[ABefb]2 .[ABef]2 A,E E2- EEA,A, |!8va(! .[abd'f'b']2 .[abd'f']2!8va)! DA!mf!!>(! A2 D2 A,2!>)! | %144
"^F" z2!p! [GB]2 [Gc]2 [EGc]2 [EGB]2 [EGc]2 | [Ace]2 [Ace]2 [Acf]2 [Acf]2 [Ace]2 [Acf]2 | %146
 [Beg]2 [gb]2 [gc']2 [egc']2 [egb]2 [egc']2 | %147
 [ac'e']2 [ac'e']2 [ac'f']2 [ac'f']2 [ac'e']2 [ac'f']2 | [gbe'g']12- | [gbe'g']12 | E6- E4 B,2 | %151
 z6 z2!pp! =d2 c2 | f2 e2 B2 c2{/e} =d2 c2 | f2 e2 B2 c2{/e} =d2 c2 | [B-=d-f]12 | [GBde]6 z2 z4 || %156
[K:C]!p! G6- G4 D2 |!>(! z6!>)! z2!pp! f2 e2 | a2 g2 d2 e2{/g} f2 e2 | a2 g2 d2 e2{/g} f2 e2 | %160
 [B-f-a]12 | [Bfg]12 |!mp! B6- B4 ^F2 |!>(! z6 z2!>)!!p! a2 ^g2 |{/A} ^c'2 b2 =f2 ^g2{/b} a2 g2 | %165
{/A} ^c'2 b2 =f2 ^g2{/b} a2 g2 | [A-^f-^c']12 | [Afb]6 z2 z4 | %168
"^G"!mp!{/G} .b2 (3aba (3gag (3^fgf (3egb (3d'^c'b |{/G} .b2 (3aba (3gag (3^fgf (3egb (3d'^c'b | %170
{/G} b2 (3egb (3d'^c'b b2 (3egb (3d'c'b |{/G} b2 (3egb (3d'^c'b [ec']3 d' e'2 | %172
{/F} a2 (3gag (3fgf (3efe (3dfa (3c'ba |{/F} .a2 (3gag (3fgf (3efe (3dfa (3c'ba | %174
{/F} .a2 (3dfa (3c'ba a2 (3dfa (3c'ba |{/F} .a2 (3dfa (3c'ba [db]3 c' d'2 | %176
"^H" [CEc]2!8va(! (3c'e'g' (3[c'c'']b'^a' [bb']2 (3c'e'g' (3[bb']_b'=a' | %177
 [_b_b']2 (3c'e'g' (3[bb']a'^g' [aa']2 (3a^c'e' (3[g=g']^f'e' | %178
 [^f^f']2 (3d'f'a' (3d''^c''^b' [^c'c'']2 (3d'f'a' (3[c'c'']=c''=b' | %179
 [=c'^f'c'']2 (3d'f'a' (3[c'c'']b'^a' [bb']2 (3b^d'f' (3[a=a']^g'f' || %180
[K:E]"^I"!ff! [ge'g']2 (3e'g'b' (3[e'e'']d''^^c'' [d'd'']2 (3e'g'b' (3[d'd'']=d''^c'' | %181
 [=d'g'=d'']!8va)! z =d/e/d/e/ d/e/d/e/ d/e/d/e/ d/e/d/e/ =cB | %182
 [=C=G=c]2!8va(! (3=c'e'=g' (3[c'=c'']b'^a' [bb']2 (3c'e'g' (3[bb']_b'=a' | %183
 ^a'/b'/a'/b'/ a'/b'/a'/b'/ a'/b'/a'/b'/ a'/b'/a'/b'/ a'/b'/a'/b'/ [^ac'f']!8va)!E | %184
 [B,GB]2!8va(! (3e'g'b' (3[e'e'']d''^^c'' [d'd'']2 (3e'g'b' (3[d'd'']=d''^c'' | %185
 [=d'g'=d'']!8va)! z =d/e/d/e/ d/e/d/e/ d/e/d/e/ d/e/d/e/ =cB | %186
 [=C=G=c]2!8va(! (3=c'e'=g' (3[c'=c'']b'^a' [bb']2 (3c'e'g' (3[bb']_b'=a' | %187
 ^a'/b'/a'/b'/ a'/b'/a'/b'/ a'/b'/a'/b'/ a'/b'/a'/b'/ a'/b'/a'/b'/ [^ac'f']e | %188
!ff!"^J" [e'g'b'e'']3!8va)! EBg [GBeg]2- [GBeg][Bb][ee']!8va(![e'e''] | %189
 [e'=g'=c''e'']3!8va)! E=c=g [F^cef]3 [cc'][ee']!8va(![e'e''] | %190
 [e'g'b'e'']3!8va)! EBg [GBeg]2- [GBeg][Bb][ee']!8va(![e'e''] | %191
 [e'=g'=c''e'']3!8va)! E=c=g [F^cef]3 [cc'][ee']!8va(![e'e''] | %192
"^K" [g'b'd''g'']3!8va)! EBg [GBeg]2- [GBeg][Bb][ee']!8va(![e'e''] | %193
 [e'g'b'e'']3!8va)! EBg [GBeg]3 [Gg][=dg=d'][ee'] | %194
 [e=g=c'e'] z!8va(! (3c'e'=g' (3[c'=c'']b'^a' [be'b']2 (3c'e'g' (3[be'b']_b'=a' | %195
 [_b_b']6- [bb']2 [aa']2 [^g^g']2 | [a_e'a']!8va)! z a/_b/a/b/ a/b/a/b/ a/b/a/b/ a/b/a/b/ ^ga | %197
 .[=d=g=d']2 .[=Gdg]2 z8 | .[_e=g_e']2 .[_E=Ge]2 z8 | .[=e=g^c'=e']2 .[=E=G^c=e]2 z2 z6 | %200
!8va(! .[e'=g'=c''e'']2!8va)! .[E=G=ce]2 z2!>(! z6!>)! |!p!"^L" e'6- e'4 b2 | =d'6- d'2 =c'2 b2 | %203
 =c'/!pp!=d'/c'/d'/ c'/d'/c'/d'/ c'/d'/c'/d'/ c'/d'/c'/d'/ c'/d'/c'/d'/!p!{/b} c'=g | %204
 [ef^a]6 [ef]4 z2 | [dfb]6- [dfb]4 [df]2 | [da-]6 a2 =g2 f2 | %207
 =g/!pp!a/g/a/ g/a/g/a/ g/a/g/a/ g/a/g/a/ g/a/g/a/!p!{/f} g=d | [^Gc^e]6 c4 z2 | [=Ge-]12 | e6 d6 | %211
"^M"!p! e'6- e'4 b2 | =d'6- d'2 =c'2 b2 | %213
 =c'/!pp!=d'/c'/d'/ c'/d'/c'/d'/ c'/d'/c'/d'/ c'/d'/c'/d'/ c'/d'/c'/d'/!p! c'^g | %214
 [c-e-f-^a]6!pp! [^Acef]6 |!p! [=cf=a]12 | e6 e4 B2 | =d6 d2 =c2 B2 | %218
 =c/!pp!=d/c/d/ c/d/c/d/ c/d/c/d/ c/d/c/d/ c/d/c/d/!p! c=G | [CF^A]6 [^A,CF]6 | [EF=A]6 ^D6 | %221
 E2!p! [GB]2 [Gc]2 [EGc]2 [EGB]2 [EGc]2 | [Ace]2 [Ace]2 [Acf]2 [Acf]2 [Ace]2 [Acf]2 | %223
 [Beg]2 [gb]2 [gc']2 [egc']2 [egb]2 [egc']2 | %224
 [ac'e']2 [ac'e']2 [ac'f']2 [ac'f']2 [ac'e']2 [ac'f']2 | [gbe'g']12- | [gbe'g']12 | [gbe'g']12- | %228
 [gbe'g']12 |!pp! [gbe'g']12- | [gbe'g']12 |[Q:1/4=48] !fermata![gbe'g']12 |] %232
V:2
!ff! E,,4 B,,,4 | D,,4 (3D,,2 C,,2 B,,,2 | %2
!mf!!ped! [C,,C,]/D,,/C,,/D,,/ C,,/4D,,/4C,,/4!f!D,,/4C,,/4D,,/4C,,/4D,,/4 C,,/4D,,/4C,,/4D,,/4C,,/4D,,/4C,,/4D,,/4!ped-up! C,,>[G,,,G,,] | %3
 .[^A,,,^A,,]4 .[F,,,F,,]4 | z8 |!mf! .[=A,,,=A,,]4 .[=F,,,=F,,]4 | z8 | %7
[K:treble]!ped! !fermata![Ee]8!ped-up! |!ped! !fermata![DA]8!ped-up! | %9
!ped! !fermata![Cc]8!ped-up! |[K:bass]!ped! !fermata![F,^CF]8!ped-up! |!ped! [A,EA]8- | %12
 [A,EA]8!ped-up! ||[M:4/4]!ped! z4!f! !arpeggio![A,,E,A,C]2 z2 z2!ped-up! | %14
!ped! z2 !arpeggio![A,,E,F,C]2 z2 z2!ped!!ped-up! z2 | !arpeggio![A,,E,G,C]2 z2 z2 z4 | z16 || %17
[K:E][M:6/4]!mf!!ped! [E,,,E,,]2!p! B,,2!ped-up! G,2 G,2 B,,2 E,,2 | %18
 [E,,,E,,]2 B,,2 G,2 G,2 B,,2 E,,2 |!mf!!ped! [E,,,E,,]2!p! B,,2 G,2 G,2 B,,2 E,,2!ped-up! | %20
!mf!!ped! E,,2!p! ^A,,2 G,2 G,2 A,,2 E,,2!ped-up! | %21
!mf!!ped! E,,2!p! B,,2 =G,2!mp! G,2 B,,2 E,,2!ped-up! | %22
!mf!!ped! D,,2!p! B,,2 F,2 F,2 B,,2!ped-up! D,,2 | %23
!mf!!ped! D,,2 B,,2!p! F,2 F,2 B,,2 D,,2!ped-up! | %24
!mf!!ped! D,,2!p! B,,2 F,2 F,2 B,,2 D,,2!ped-up! |!ped! D,,2!p! B,,2 ^E,2 E,2 B,,2 D,,2!ped-up! | %26
!ped! =D,,2 B,,2 F,2 F,2 B,,2 D,,2!ped-up! |!mf!!ped! C,,2 B,,2!p! ^E,2 E,2 B,,2!ped-up! C,,2 | %28
!mf!!ped! C,,2 B,,2!p! ^E,2 E,2 B,,2 C,,2!ped-up! | %29
!pp!!ped! ^E,,2!<(! C,2!p! G,2!<)! G,2!pp!!>(! C,2 E,,2!ped-up!!>)! | %30
!ped!!<(! =E,,2 =D,2!<)!!p! G,2!>(! G,2!pp! D,2 E,,2!ped-up!!>)! | %31
!ped! =F,,2 =D,2 _A,2 A,2 D,2 F,,2!ped-up! | %32
"^crescendo poco a poco"!ped! =G,,2 _E,2 _B,2 B,2 E,2!ped-up! G,,2 | %33
!ped! _G,,2 _F,2 _B,2 B,2 F,2 G,,2!ped-up! |!ped! =G,,2 =E,2 _B,2 B,2 E,2 G,,2!ped-up! | %35
!ped! A,,2 =F,2 =C2 C2 _G,2!ped-up! _A,,2 | %36
!ped! =A,,2 ^F,2 =C2!ped-up!!ped! B,,2 =G,2 =D2!ped-up! | %37
!ped! =D2 _A,2 =B,,2 =B,,2 ^G,2 D2!ped-up! |!ped! C,2!mf! A,2 E2 E2 A,2!ped-up! C,2 | %39
!f!!ped! C,2!mf! A,2 D2 D2 A,2 C,2!ped-up! |!ped! =C,2!mf! A,2 E2 E2 A,2 C,2!ped-up! | %41
!f!!ped! [B,,,B,,]2!mf! A,2 E2 E2 A,2!ped-up! B,,2 | %42
!f!!ped! [B,,,B,,]2!mf! A,2 D2!f! D2 A,2 B,,2!ped-up! | %43
!ff!!ped! [E,,,E,,]2 B,,2 G,2 G,2 B,,2 E,,2!ped-up! | [E,,,E,,]2 B,,2 G,2 G,2 B,,2 E,,2 | %45
!f!!ped! [E,,,E,,]2 B,,2 G,2 G,2 B,,2 E,,2!ped-up! | %46
!ped! [E,,,E,,]2 ^A,,2 G,2 G,2 A,,2 E,,2!ped-up! | %47
!ped! [E,,,E,,]2!mp! B,,2 =G,2!mf! G,2 B,,2 E,,2!ped-up! | %48
!f!!ped! [D,,,D,,]2 B,,2 F,2 F,2 B,,2!ped-up! D,,2 | %49
!ped! [D,,,D,,]2 B,,2 F,2!f! F,2 B,,2 D,,2!ped-up! | %50
!ped! [=D,,,=D,,]2 B,,2 =G,2 G,2 B,,2 D,,2!ped-up! | %51
!ped! [C,,,C,,]2 B,,2 =G,2 G,2 B,,2 C,,2!ped-up! | %52
!ped! [=D,,,=D,,]2!mp! _B,,2 =G,2!mf! G,2 B,,2 D,,2!ped-up! | %53
!ped! C,,2 A,,2 E,2 E,2 A,,2!ped-up! C,,2 |!ped! C,,2 A,,2!f! E,2!mf! E,2!mp! A,,2 C,,2!ped-up! | %55
!p!!ped! C,,2 A,,2 E,2 E,2 A,,2 C,,2!ped-up! | %56
"^crescendo poco a poco"!ped! =C,,2 A,,2 E,2 E,2 A,,2 C,,2!ped-up! | %57
!ped! ^C,,2 ^A,,2 E,2 E,2 A,,2 C,,2!ped-up! |!ped! D,,2 B,,2 F,2 F,2 B,,2!ped-up! D,,2 | %59
!ped! =D,,2 =C,2 F,2 F,2 C,2 D,,2!ped-up! |!ped! ^D,,2!p! ^B,,2 F,2 F,2 B,,2 D,,2!ped-up! | %61
!ped! ^E,,2 C,2 G,2 G,2 =D,2!ped-up! ^E,,2 |!ped! =F,,2 =D,2 _B,2 =G,,2 _E,2 B,2!ped-up! | %63
!ped! _B,2 =E,2 _G,,2 =G,,2!f! =E,2!ped-up! =B,2 |!f!!ped! =A,,2!mf! =F,2 =C2 C2 F,2!ped-up! A,,2 | %65
!f!!ped! A,,2!mf! =F,2 _C2 C2 F,2 A,,2!ped-up! |!ped! _A,,2!mf! =F,2 =C2 C2!f! F,2 A,,2!ped-up! | %67
!ped! =G,,2!f! =F,2!mf! =C2 C2 F,2!ped-up! G,,2 | %68
!ff!!ped! [=G,,,=G,,]2 =F,2 B,2!mf! B,2!mp! F,2!p! G,,2!ped-up! || %69
[K:C]!p!!ped! z6!mp! A,2 z2 z2!ped-up! | F,2 z2 z2 D,2 z2 z2 |!ped! [C,C]2 z2 z2 A2 z2 z2!ped-up! | %72
 F2 z2 z2 D2 z4 |!ped! [C,C]2 G,2 E2 E2 G,2 C,2!ped-up! | C,2 G,2 E2 E2 G,2 C,2 | %75
!ped! C,2 G,2 E2 E2 G,2 C,2!ped-up! |!ped! C,2 ^F,2 E2 E2 F,2 C,2!ped-up! | %77
!ped! C,2 G,2 E2 _E2 ^F,2 C,2!ped-up! |!ped! C,2 G,2 E2 _E2 ^F,2 C,2!ped-up! | %79
!ped! C,2 G,2 =E2 E2 G,2 C,2!ped-up! | C,2 G,2 E2 E2 G,2 C,2 || %81
[K:G]!ped! ^C,2 A,2 E2 E2 A,2 C,2!ped-up! |!ped! ^C,2 A,2 ^D2 D2 A,2 C,2!ped-up! | %83
!ped! ^C,2 A,2 E2{/=C,} ^D2 A,2 C,2!ped-up! |!ped! ^C,2 A,2 E2{/=C,} ^D2 A,2 C,2!ped-up! | %85
!ped! ^C,2 A,2 E2 E2 A,2 C,2!ped-up! | ^C,2 A,2 E2 E2 A,2 C,2 | %87
!ped! ^C,2 ^A,2 F2 F2 A,2 C,2!ped-up! |!ped! ^B,,2 ^A,2 F2 F2 A,2 B,,2!ped-up! | %89
!ped! ^C,2 ^A,2 F2{/^B,,} F2 =A,2 B,,2!ped-up! |!ped! ^C,2 ^A,2 F2{/^B,,} F2 =A,2 B,,2!ped-up! | %91
!ped! ^C,2 ^A,2 F2 F2 A,2 C,2!ped-up! | ^C,2 ^A,2 F2 F2 A,2 C,2 |!ped! D12!ped-up! | %94
!ped! D12!ped-up! |!ped! D12!ped-up! |!ped! D12!ped-up! |!ped! C12!ped-up! |!ped! C12!ped-up! | %99
!ped! C12!ped-up! |!ped! C12!ped-up! |!ped! x2 D,2 B,2!ped-up!!ped! [G,,B,]2 D,2 G,,2!ped-up! | %102
!ped! [G,,,G,,]2 D,2 B,2!ped-up!!ped! [^G,,B,]2 D,2 G,,2!ped-up! | %103
!ped! [A,,,A,,]2 E,2 ^C2!ped-up!!ped! [A,,C]2 E,2 A,,2!ped-up! | %104
!ped! [A,,,A,,]2 E,2 ^C2!ped-up!!ped! [^A,,C]2 F,2 A,,2!ped-up! |: %105
!f!!ped! [B,,,B,,]2 F,2 ^D2!ped-up!!ped! D2 F,2 B,,2!ped-up! | %106
!ped! [B,,,B,,]2 A,2 ^D2 D2 A,2 B,,2!ped-up! |!ped! [B,,,B,,]2 =G,2 =D2 D2 G,2!ped-up! B,,2 | %108
!ped! [B,,,B,,]2 ^G,2 ^C2 C2 G,2 B,,2!ped-up! :| %109
!ff!!ped! [B,,B,]4 [F,,F,]2 [A,,A,]4!ped-up!!ped! [G,,G,][F,,F,]!ped-up! | %110
!ped! [G,,G,]4 [D,,D,]2!ped-up!!ped! [^E,,^E,]2 [^C,,^C,]2 z2!ped-up! | %111
!ped! [B,,B,]4 [F,,F,]2 [A,,A,]4!ped-up!!ped! [G,,G,][F,,F,]!ped-up! | %112
!ped! [G,,G,]4 [D,,D,]2!ped-up!!ped! [^E,,^E,]2 [^C,,^C,]2 z2!ped-up! | %113
!f!!ped! B,,2!mp! F,2 ^D2 D2 F,2 B,,2!ped-up! |!f!!ped! B,,2!mp! ^E,2 ^D2 D2 ^E,2 B,,2!ped-up! | %115
!f!!ped! B,,2 F,2 =D2 D2 F,2 B,,2!ped-up! | %116
!ped! [B,,F,B,]2 [^G,^C^E]2 C2!ped-up!!ped! [=C=E]2 [E,=G,C]2 B,,2!ped-up! | %117
!ped! [B,,,B,,]2 [F,B,E]2 B,2!ped-up!!ped! [B,^DF]2 [F,B,D]2 B,,2!ped-up! || %118
[K:E]!ped! [E,,B,,E,]2- [E,,B,,E,][E,B,][B,E][B,G] [E,B,G]2- [E,B,G]GB,E,!ped-up! | %119
!ped! [E,,B,,E,]2- [E,,B,,E,][E,B,][B,E]G [E,B,G]2- [E,B,G][B,G][B,E][E,G,]!ped-up! | %120
!ped! [E,,B,,E,]2- [E,,B,,E,][E,B,][B,E]G !arpeggio![E,B,G]2- [E,B,G]G[B,E]E,!ped-up! | %121
!ped! [E,,^A,,E,]2- [E,,A,,E,]E,^A,G [E,A,G]2- [E,A,G]G[A,E]E,!ped-up! | %122
!ped! [E,,B,,E,]2- [E,,B,,E,]E,B,=G [E,B,G]2- [E,B,G]GB,E,!ped-up! | %123
!ped! [D,,B,,D,]2- [D,,B,,D,]D,B,F [D,B,F]2- [D,B,F]F!ped-up!B,D, | %124
[K:treble]!ped! [Ff]2 [B,B][K:bass] D,B,F [D,B,F]2- [D,B,F]FB,D,!ped-up! | %125
!ped! [D,,B,,D,]2- [D,,B,,D,]D,B,F [D,B,F]2- [D,B,F]FB,D,!ped-up! | %126
!ped! [D,,B,,D,]2- [D,,B,,D,]D,B,^E [D,B,E]2- [D,B,E]EB,D,!ped-up! | %127
!ped! [=D,,B,,=D,]2- [D,,B,,D,]D,B,F [D,B,F]2- [D,B,F]FB,D,!ped-up! | %128
!ped! [C,,G,,C,]2- [C,,G,,C,]E,B,^E!ped-up!!ped! [G,^B,^E]2- [G,B,E]E!ped-up!G,C, | %129
[K:treble]!ped! [C^Ec]2 [G,G]2[K:bass] (3^E,CG [E,CG]2- [E,CG]GCE,!ped-up! | %130
!ped! [^E,,C,^E,]2- [E,,C,E,]E,CG!ped-up!!ped! [E,CG]2- [E,CG]GCE,!ped-up! | %131
!ped! [E,,G,,=D,=E,]2- [E,,G,,D,E,]E,=DG [DG]2- [DG]GDE,!ped-up! | %132
!ped! [=F,,=D,=F,]2- [F,,D,F,]F,=D_A [F,DA]2- [F,DA]A^D^F,!ped-up! | %133
!ped! [=G,,_B,,=G,]2- [G,,B,,G,]G,_E_B!ped-up!!ped!{/G,} [EB]2- [EB]BEG,!ped-up! | %134
!ped! [_G,,_B,,_G,]2- [G,,B,,G,]G,_F_B{/G,} [FB]2- [FB]BFG,!ped-up! | %135
!ped! [=G,,_B,,=G,]2- [G,,B,,G,]G,E_B [G,EB]2- [G,EB]BEG,!ped-up! | %136
!ped! [A,,=C,A,]2- [A,,C,A,]A,,=F,=C!ped-up!!ped! [_A,,_G,C]2 CC!ped-up!G,A,, | %137
!ped! [=A,,^F,=C]2- [A,,F,C]A,,F,C!ped-up!!ped! [B,,=G,=D]2- [B,,G,D]B,,G,D!ped-up! | %138
!ped! [_B,,_A,=D]2- [B,,A,D]DA,B,, [=B,,^G,D]2- [B,,G,D]B,,G,D!ped-up! | %139
!ped! [C,,C,]2- [C,,C,]C,A,E!ped-up!!ped! [C,A,E]2- [C,A,E]E!ped-up!A,C, | %140
!ped! [C,,A,,C,]2- [C,,A,,C,]C,A,D{/C,} [A,D]2- [A,D]DA,C,!ped-up! | %141
!ped! [=C,,A,,=C,]2- [C,,A,,C,]C,A,E [C,A,E]2- [C,A,E]EA,C,!ped-up! | %142
!ff! .[B,,,F,,B,,]2- .[B,,,F,,B,,]!ped!B,,E,A, A,2- A,A,!ped-up!E,B,, | %143
 .[B,,,F,,B,,]2- .[B,,,F,,B,,]!f!!ped![B,,A,]A,D{/[B,,F,A,]} D2!mp! A,2!p! B,,2!ped-up! | %144
!ped! z2!pp! EFED CDCDCB,!ped-up! |!ped! A,2 A,B,A,G, F,G,F,G,F,E,!ped-up! | %146
!p!!ped! z2[K:treble]!pp! (3efe (3ded (3cdc (3dcd (3cBc!ped-up! | %147
!ped! A2 (3ABA (3BAG (3FGF (3GFG (3FEF!ped-up! | %148
!p!!ped! [E,E]2- [E,E]!pp!E,B,G G2- GGB,E,!ped-up! | E,2- E,E,B,G G2- GGB,E, | %150
!ped! E,2- E,E,B,G G2- GGxE,!ped-up! |!>(!!ped! E,2- E,E,_B,G G2- G!>)!GB,E,!ped-up! | %152
!ped! E,2- E,E,B,^G!ped-up!!ped! =G2- GG^A,E,!ped-up! | %153
!ped! E,2- E,E,B,G!ped-up!!ped! =G2- GG^A,E,!ped-up! |!ped! E,2- E,E,B,G G2- GGB,E,!ped-up! | %155
!ped! E,2- E,E,B,G G2- GGB,E,!ped-up! ||[K:C][K:bass]!pp!!ped! D,2- D,D,B,G G2- GGB,D,!ped-up! | %157
!ped! ^C,2- C,C,B,G G2- GGB,C,!ped-up! |!ped! D,2- D,D,B,G!ped-up!!ped! [^CG-]2 GG^A,^C,!ped-up! | %159
!pp!!ped! D,2- D,D,B,G!ped-up!!ped! [^CG-]2 GG^A,^C,!ped-up! | %160
!ped! D,2- D,D,B,G G2- GGB,D,!ped-up! |!ped! D,2- D,D,B,G G2- GGB,D,!ped-up! | %162
!p!!ped! ^D,2- D,D,B,^F F2- FFB,D,!ped-up! |!ped! ^D,2- D,!pp!D,B,^F F2- FFB,D,!ped-up! | %164
!ped! ^D,2- D,D,B,^F!ped-up!!ped! [^^C^E]2- [CE]EB,^^C,!ped-up! | %165
!ped! ^D,2- D,D,B,^F!ped-up!!ped! [^^C^E]2- [CE]EB,^^C,!ped-up! | %166
!ped! ^D,2- D,D,B,^F F2- FFB,D,!ped-up! |!ped! ^D,2- D,D,B,^F F2- FFB,D,!ped-up! | %168
!ped!{/E,,} E,2 B,2 E2{/E} B2 E2 B,2!ped-up! |!ped!{/E,,} E,2 B,2 E2{/E} B2 E2 B,2!ped-up! | %170
!ped!{/E,,} E,2 B,2 E2!ped-up!!ped!{/E} B2 E2 B,2!ped-up! | %171
!ped!{/E,,} E,2 B,2 E2!ped-up!!ped! A,,2 E2 A,2!ped-up! | %172
!ped!{/D,,} D,2 A,2 D2{/D} A2 D2 A,2!ped-up! |!ped!{/D,,} D,2 A,2 D2{/D} A2 D2 A,2!ped-up! | %174
!ped!{/D,,} D,2 A,2 D2!ped-up!!ped!{/D} A2 D2 A,2!ped-up! | %175
!ped!{/D,,} D,2 A,2 D2!ped-up!!ped! G,,2 D2 G,2!ped-up! | %176
!f!!ped! [C,,C,]2- [C,,C,]C,G,E!ped-up!!ped! [CE]2- [CE]EG,C,!ped-up! | %177
!ped! [C,,C,]2- [C,,C,]C,G,E!ped-up!!ped! !arpeggio![^C,G,E]2- [C,G,E]EA,C,!ped-up! | %178
!ped! [D,,D,]2- [D,,D,]D,A,^F!ped-up!!ped! [DF]2- [DF]FA,D,!ped-up! | %179
!ped! [D,,D,]2- [D,,D,]D,A,^F!ped-up!!ped! [^D,A,F]2- [D,A,F]FB,D,!ped-up! || %180
[K:E]!ped! [E,,B,,E,]2- [E,,B,,E,]E,B,G!ped-up!!ped! !arpeggio![E,B,G]2- [E,B,G]GB,E,!ped-up! | %181
!ped! [E,,B,,E,]2- [E,,B,,E,]E,=DG{/E,} [B,DG]2- [B,DG]GDE,!ped-up! | %182
!ped! [E,,=C,E,]2- [E,,C,E,]E,=C=G!ped-up!!ped! [E,CG]2- [E,CG]G!ped-up!CE, | %183
!ped! [E,,^C,E,]2- [E,,C,E,]E,[^A,^C]F [E,A,CF]2- [E,A,CF]F[A,C]E,!ped-up! | %184
!f!!ped! [E,,B,,E,]2- [E,,B,,E,]E,B,G!ped-up!!ped! [E,B,G]2- [E,B,G]G!ped-up!B,E, | %185
!ped! [E,,B,,E,]2- [E,,B,,E,]E,B,G [E,B,G]2- [E,B,G]GB,E,!ped-up! | %186
!ped! [E,,=C,E,]2- [E,,C,E,]E,=C=G!ped-up!!ped! [E,CG]2- [E,CG]G!ped-up!CE, | %187
!ped! [E,,^C,E,]2- [E,,C,E,]E,[^A,^C]F [E,A,CF]2- [E,A,CF]F[A,C]E,!ped-up! | %188
!fff!!ped! [E,,E,]4 [B,,,B,,]2!ped-up!!ped! [=D,,=D,]4!ped-up! [=C,,=C,][B,,,B,,] | %189
!ped! [=C,,=C,]4 [=G,,,=G,,]2!ped-up!!ped! [^A,,,^A,,]2 [F,,,F,,]2 z2!ped-up! | %190
!ped! [E,,E,]4 [B,,,B,,]2!ped-up!!ped! [=D,,=D,]4 [=C,,=C,][B,,,B,,]!ped-up! | %191
!ped! [=C,,=C,]4 [=G,,,=G,,]2!ped-up!!ped! [^A,,,^A,,]2 [F,,,F,,]2 z2!ped-up! | %192
!ped! [E,,E,]6-!ped-up!!ped! [E,,E,]4 [B,,,B,,]2!ped-up! | %193
!ped! [=D,,=D,]6!ped-up!!ped! [D,,D,]2 [=C,,=C,]2 [B,,,B,,]2!ped-up! | %194
!ff!!ped! [=C,,=C,]2- [C,,C,]C,=G,E!ped-up!!ped! [C,G,E]2- [C,G,E]EG,C,!ped-up! | %195
!ped! [=C,,^F,,=C,]2- [C,,F,,C,]C,F,E [C,F,E]2- [C,F,E]EF,C,!ped-up! | %196
!ped! [=C,,=G,,=C,]2- [C,,G,,C,]C,=G,_E [C,G,E]2- [C,G,E]=E^G,C,!ped-up! | %197
!ped! [B,,,=G,,B,,]2- [B,,,G,,B,,]B,,=G,=D!ped-up!!ped! [B,,G,D]2- [B,,G,D]D!ped-up!G,B,, | %198
!ped! [_B,,,_B,,]2- [B,,,B,,]B,,=G,_E!ped-up!!ped! [B,,G,E]2- [B,,G,E]EG,B,,!ped-up! | %199
!ped! [A,,,A,,]2 [A,,,A,,]A,,E,C!ped-up!!ped! [A,,E,C]2- [A,,E,C]CE,A,,!ped-up! | %200
!ped! [^A,,,^A,,]2- [A,,,A,,]A,,E,=C!f! C2!mf! E,2!mp! A,,2!ped-up! | %201
!p!!ped! [B,,G,]2-!pp! [B,,G,]G,EB!ped-up! B2- BBEG, | %202
!p!!ped! [B,,G,]2-!pp! [B,,G,]G,=F[I:staff -1]=d d2- dd[I:staff +1]FG,!ped-up! | %203
!p!!ped! [B,,=G,]2-!pp! [B,,G,]G,[I:staff -1]E=c c2- ccE[I:staff +1]G,!ped-up! | %204
!p!!ped! [B,,F,]2-!pp! [B,,F,]F,E^A A2- AAEF,!ped-up! | %205
!p!!ped! [B,,F,]2-!pp! [B,,F,]F,DB B2- BBDF,!ped-up! | %206
!p!!ped! [B,,F,]2-!pp! [B,,F,]F,D=c c2- ccDF,!ped-up! | %207
!p!!ped! [B,,=G,]2-!pp! [B,,G,]G,=DB B2- BBDG,!ped-up! | %208
!p!!ped! [B,,^G,]2-!pp! [B,,G,]G,CB B2- BBCG,!ped-up! | %209
!p!!ped! [B,,=G,]2-!pp! [B,,G,]G,EB ^A2- AAEG,!ped-up! | %210
!p!!ped! [B,,F,]2-!pp! [B,,F,]F,B,=A A2- AAB,F,!ped-up! | %211
!pp!!ped! [E,,E,]2- [E,,E,]E,B,G G2- GGB,E,!ped-up! | %212
!ped! [E,,E,]2- [E,,E,]E,=DG G2- GGDE,!ped-up! |!ped! [E,,E,]2- [E,,E,]E,=C=G G2- GGCE,!ped-up! | %214
!ped! [E,,E,]2- [E,,E,]E,CF F2- FFCE,!ped-up! |!ped! [E,,E,]2- [E,,E,]E,=CA A2- AACE,!ped-up! | %216
!ped!{/E,,,} E,,2 B,,2 G,2 G,2 B,,2 E,,2!ped-up! |!ped!{/E,,,} E,,2 =D,2 G,2 G,2 D,2 E,,2!ped-up! | %218
!ped!{/E,,,} E,,2 =C,2 =G,2 G,2 C,2 E,,2!ped-up! | %219
!ped!{/E,,,} E,,2 ^C,2 ^F,2 F,2 C,2 E,,2!ped-up! |!ped!{/E,,,} E,,2 =C,2 A,2 A,2 C,2 E,,2!ped-up! | %221
!ped!{/E,,,} E,,2!pp! EFED CDCDCB,!ped-up! |!ped! A,2 A,B,A,G, F,G,F,G,F,E,!ped-up! | %223
!ped!{/E,,,} E,,2[K:treble]!pp! (3efe (3fed (3cdc (3dcd (3cBc!ped-up! | %224
!ped! A2 (3ABA (3BAG (3FGF (3GFG (3FEF!ped-up! | %225
[K:bass]!ped! [E,,,E,,]2 B,,2 G,2 G,2 B,,2 E,,2!ped-up! | [E,,,E,,]2 B,,2 G,2 G,2 B,,2 E,,2 | %227
!ped! [E,,E,-]2 E,E,B,G G2- GGB,E,!ped-up! |!ped! [E,,E,-]2 E,E,B,G G2- GGB,E,!ped-up! | %229
!ped! [E,B,G]12!ped-up! | [E,B,G]12 |!ped! !fermata![E,B,G]12!ped-up! |] %232
V:3
 x8 | x8 | x8 | x8 | x8 | x8 | x8 |[K:treble] x8 | x8 | x8 | x31/4 [eac'e']/4 | x8 | x8 || %13
[M:4/4] z4 !arpeggio![EAce]2 z2 z2 | x2 !arpeggio![EFce]2 z2 z2 x2 | !arpeggio![EGce]2 z8 | x16 || %17
[K:E][M:6/4] x12 | x12 | G,12 | G,12 | =G,12 | F,12 | x12 | B,12 | [B,^E]12 | [B,^F]12 | [B,^E]12 | %28
 x12 | C12 | [=DG]12 | [=D_A]12 | _E12 | [_F_B]12 | [=E_B]12 | [=F=c]6 [^Fc]6 | [F=c]6 [=G=d]6 | %37
 [_A=d]6 [^G=d]6 | A12 | [A^d]12 | [A=e]12 | x12 | x12 | x6 B,2- B,GBe | e2 eBGB, B,2 z2 z2 | %45
 [EG]12 | [EG]12 | [E=G]12 | x12 | x12 | [=GB]12 | [=FB]12 | [E_B]12 | x12 |!8va(! x4!8va)! x8 | %55
 A12 | [^Ae]12 | [^A=e]12 | B12 | [^Bf]12 | [^B^f]12 | [cg]6 [=dg]6 | [=d_a]6 [_e_b]6 | %63
 [=e_b]6 [e_b]6 | x12 | x12 | [=f=c']12 | x12 | x12 ||[K:C] x12 | x12 | x12 | x12 | x12 | x12 | %75
 x12 | _B12 | [eg_b]6 [c^f]6 | [eg_b]6 [c^f]6 | x12 | x12 ||[K:G] x12 | G12 | [eg]6 [A^d]6 | %84
 [eg]6 [A^d]6 | x12 | x12 | x12 | E12 | [^Ae]6 =A6 | [^Ae]6 =A6 | x12 | x12 | x12 | x12 | x12 | %96
 x12 | x12 | x12 | x12 | x12 | x12 | x12 | x2!8va(! x10 | x12 |: x12 | x!8va)! x F4- F4 x2 | %107
 x2!8va(! x10 | ^c'6 z2 z4!8va)! :| x12 | x12 | x12 | x12 | [B^d]12 | [A^d]12 | =d12 | x12 | x12 || %118
[K:E] x12 | x12 | g12 | g12 | [c=g]12 | x2!8va(! x10 | a/b/a/b/ a/b/a/b/ a/b/a/b/ a2!8va)! z4 | %125
 [Bf]6- [Bf]6 | x12 | f12 | x2 g2!8va(! x8 | =b/c'/b/c'/ b/c'/b/c'/ b/c'/b/c'/ b2!8va)! z2 z2 | %130
 [CGc]12 | x12 | [_B_a]12 | x12 | _f12 | =e12 | x12 | x12 | x12 | x12 | ^d'12 | [fe']12 | x12 | %143
!8va(! x4!8va)! x8 | x12 | x12 | x12 | x12 | x12 | x12 | x10 B,2 | =D12 | [GB=d]6 [E^A]6 | %153
 [GB=d]6 [E^A]6 | G4 z8 | x12 ||[K:C] x12 | F12 | [Bf]6 ^A6 | [Bf]6 ^A6 | x12 | x12 | x12 | A12 | %164
 ^f6 [B^e]6 | ^f6 [B^e]6 | x12 | x12 | G12 | G12 | G12 | G12 | F12 | F12 | F12 | F12 | %176
 x2!8va(! x10 | x12 | x12 | x12 ||[K:E] x12 | x!8va)! x11 | x2!8va(! x10 | %183
 [^af']6- [af']4 x!8va)! x | x2!8va(! x10 | x!8va)! x11 | x2!8va(! x10 | [^af']6- [af']4 x2 | %188
 x3!8va)! x8!8va(! x | x3!8va)! x8!8va(! x | x3!8va)! x8!8va(! x | x3!8va)! x8!8va(! x | %192
 x3!8va)! x8!8va(! x | x3!8va)! x9 | x2!8va(! x10 | e'12 | x!8va)! x _e4- e4 z2 | x12 | x12 | x12 | %200
!8va(! x2!8va)! x10 | [egb]12 | [=fg]12 | [e=g]12 | x12 | x12 | =c4 z2 z6 | [B=d]4 z8 | x6 [^EG]6 | %209
 B4 z2 z6 | A4 z2 z6 | [eg]12 | [=fg]12 | [e=g]12 | x12 | e6!pp! ^d6 | B4 z2 z6 | [=FG]12 | %218
 [E=G]12 | E12 | =C12 | [B,G]2 x10 | x12 | x12 | x12 | x12 | x12 | x12 | x12 | x12 | x12 | x12 |] %232
V:4
 x8 | x8 | x8 | x8 | x8 | x8 | x8 |[K:treble] x8 | x8 | x8 |[K:bass] x31/4 [A,EA]/4 | x8 | x8 || %13
[M:4/4] x10 | x10 | x10 | x16 ||[K:E][M:6/4] E,,12 | E,,12 | E,,12 | E,,12 | E,,12 | D,,12 | %23
 D,,12 | D,,12 | x12 | x12 | C,,12 | C,,12 | ^E,,12 | E,,12 | =F,,12 | =G,,12 | _G,,12 | =G,,12 | %35
 A,,6 _A,,6 | A,,6 B,,6 | _B,,6 =B,,6 | C,12 | C,12 | =C,12 | B,,12 | B,,12 | E,,12 | E,,12 | %45
 E,,12 | E,,12 | E,,12 | D,,12 | D,,12 | =D,,12 | C,,12 | =D,,12 | C,,12 | C,,12 | C,,12 | =C,,12 | %57
 C,,12 | D,,12 | =D,,12 | D,,12 | ^E,,6 =E,,6 | =F,,6 =G,,6 | _G,,6 =G,,6 | A,,12 | A,,12 | %66
 _A,,12 | =G,,12 | =G,,12 ||[K:C] =C,,12- | C,,12- | C,,12- | C,,12 | x12 | x12 | x12 | x12 | %77
 C,12 | C,12 | x12 | x12 ||[K:G] x12 | x12 | x12 | x12 | x12 | x12 | x12 | x12 | x12 | x12 | x12 | %92
 x12 | B,,2 F,2 B,2 F2 B,2 F,2 | B,,2 F,2 B,2 F2 B,2 F,2 | B,,2 F,2 B,2 F2 B,2 F,2 | %96
 B,,2 F,2 B,2{/E,} E2 B,2 E,2 | .A,,2 E,2 A,2 E2 A,2 E,2 | .A,,2 E,2 A,2 E2 A,2 E,2 | %99
 .A,,2 E,2 A,2 E2 A,2 C,2 | .A,,2 E,2 C2 D2 A,2 D,2 | [G,,D,B,]6 x6 | x12 | x12 | x12 |: x12 | %106
 x12 | x12 | x12 :| x12 | x12 | x12 | x12 | x12 | x12 | x12 | x12 | x12 ||[K:E] x12 | x12 | x12 | %121
 x12 | x12 | x12 |[K:treble] x5/2[K:bass] x19/2 | x12 | x12 | x12 | x12 |[K:treble] x3[K:bass] x9 | %130
 x12 | x12 | x12 | x12 | x12 | x12 | x12 | x12 | x12 | x12 | x12 | x12 | x12 | x12 | [E,,,E,,]12- | %145
 [E,,,E,,]12 | [E,,,E,,]12[K:treble] | x12 | x12 | x12 | x12 | x12 | x12 | x12 | x12 | x12 || %156
[K:C][K:bass] x12 | x12 | x12 | x12 | x12 | x12 | x12 | x12 | x12 | x12 | x12 | x12 | x12 | x12 | %170
 x12 | x12 | x12 | x12 | x12 | x12 | x12 | x12 | x12 | x12 ||[K:E] x12 | x12 | x12 | x12 | x12 | %185
 x12 | x12 | x12 | x12 | x12 | x12 | x12 | x12 | x12 | x12 | x12 | x12 | x12 | x12 | x12 | x12 | %201
 x12 | x12 | x12 | x12 | x12 | x12 | x12 | x12 | x12 | x12 | x12 | x12 | x12 | x12 | x12 | E,,12 | %217
 E,,12 | E,,12 | E,,12 | E,,12 | E,,12- | E,,12 | E,,12[K:treble] | x12 |[K:bass] x12 | x12 | x12 | %228
 x12 | x12 | x12 | z2 [E,,,E,,]4- [E,,,E,,]6 |] %232
V:5
 x8 | x8 | x8 | x8 | x8 | x8 | x8 |[K:treble] x8 | x8 | x8 | x8 | x8 | x8 ||[M:4/4] x10 | x10 | %15
 x10 | x16 ||[K:E][M:6/4] x12 | x12 | x12 | x12 | x12 | x12 | x12 | x12 | x12 | x12 | x12 | x12 | %29
 x12 | x12 | x12 | x12 | x12 | x12 | x12 | x12 | x12 | x12 | x12 | x12 | x12 | x12 | x12 | x12 | %45
 x12 | x12 | x12 | x12 | x12 | x12 | x12 | x12 | x12 |!8va(! x4!8va)! x8 | x12 | x12 | x12 | x12 | %59
 x12 | x12 | x12 | x12 | x12 | x12 | x12 | x12 | x12 | x12 ||[K:C] x12 | x12 | x12 | x12 | x12 | %74
 x12 | x12 | x12 | x12 | x12 | x12 | x12 ||[K:G] x12 | x12 | x12 | x12 | x12 | x12 | x12 | x12 | %89
 x12 | x12 | x12 | x12 | x12 | x12 | x12 | x12 | x12 | x12 | x12 | x12 | x12 | x12 | x2!8va(! x10 | %104
 x12 |: x12 | x!8va)! x11 | x2!8va(! x10 | x12!8va)! :| x12 | x12 | x12 | x12 | x12 | x12 | x12 | %116
 x12 | x12 ||[K:E] x12 | x12 | x12 | x12 | x12 | x2!8va(! x10 | x8!8va)! x4 | x12 | x12 | x12 | %128
 x4!8va(! x8 | x8!8va)! x4 | x12 | x12 | x12 | x12 | x12 | x12 | x12 | x12 | x12 | x12 | x12 | %141
 x12 | x12 |!8va(! x4!8va)! x8 | x12 | x12 | x12 | x12 | x12 | x12 | x12 | x12 | x12 | x12 | x12 | %155
 x12 ||[K:C] x12 | x12 | x12 | x12 | x12 | x12 | x12 | x12 | x12 | x12 | x12 | x12 | x12 | x12 | %170
 x12 | x12 | x12 | x12 | x12 | x12 | x2!8va(! x10 | x12 | x12 | x12 ||[K:E] x12 | x!8va)! x11 | %182
 x2!8va(! x10 | x11!8va)! x | x2!8va(! x10 | x!8va)! x11 | x2!8va(! x10 | x12 | %188
 x3!8va)! x8!8va(! x | x3!8va)! x8!8va(! x | x3!8va)! x8!8va(! x | x3!8va)! x8!8va(! x | %192
 x3!8va)! x8!8va(! x | x3!8va)! x9 | x2!8va(! x10 | x12 | x!8va)! x11 | x12 | x12 | x12 | %200
!8va(! x2!8va)! x10 | x12 | x12 | x12 | x12 | x12 | x12 | x12 | x12 | x12 | F12 | x12 | x12 | x12 | %214
 x12 | x12 | [EG]12 | x12 | x12 | x12 | x12 | x12 | x12 | x12 | x12 | x12 | x12 | x12 | x12 | x12 | %230
 x12 | x12 |] %232

